X: 3893
T: Black Whiskey Hill
R: jig
M: 6/8
K: Aminor
|c2c B2B|A/G/EG A3|[M:9/8] cAe age dcA|[M:6/8] G2G, G,B,D|BGD B,DG|
CFc BAG|EGd cBA|GE/D/C B,A,G,|A,B,/A,/G, A,2A,|
c2c B2B|A/G/EG A3|[M:9/8] cAe age dcA|[M:6/8] G2G, G,B,D|BGD B,DG|
CFc BAG|EGc dBG|FE/D/C B,A,G,|A,B,/A,/G, A,2 D/E/|
|:FGF EDC|B,A,G, A,2 D/E/|FAF EDC|G2G EFG|
AcA BGD|AGF EDC|B,CD G,CB,|1 A,2A, A,2 D/E/:|2 A,EG A3||

